X: 305741
M: 2/4
L: 1/16
K: C
cGAB cde^f | g2 G4 cB | AcBd cedf | ecge d2G2 |\
cedc dfed | efga g2c'2 | e2e2 dcde | c2c2c2 H|]
EF |\
E2 |\
a^gab ac'ba | gabg a2f2 | eafd c2"^D.C."B2 |]


